docs/img/svg/volume_up.svg

<svg width="16" height="16" viewBox="0 0 16 16" fill="none" xmlns="http://www.w3.org/2000/svg">
<path d="M2 5.99999V9.99999H4.66667L8 13.3333V2.66665L4.66667 5.99999H2ZM11 7.99999C11 6.81999 10.32 5.80665 9.33333 5.31332V10.68C10.32 10.1933 11 9.17999 11 7.99999ZM9.33333 2.15332V3.52665C11.26 4.09999 12.6667 5.88665 12.6667 7.99999C12.6667 10.1133 11.26 11.9 9.33333 12.4733V13.8467C12.0067 13.24 14 10.8533 14 7.99999C14 5.14665 12.0067 2.75999 9.33333 2.15332Z" fill="white"/>
</svg>

<svg width="16" height="16" fill="none" xmlns="http://www.w3.org/2000/svg"><path d="M2 6v4h2.667L8 13.333V2.667L4.667 6H2Zm9 2a3 3 0 0 0-1.667-2.687v5.367A2.983 2.983 0 0 0 11 8ZM9.333 2.153v1.374A4.67 4.67 0 0 1 12.667 8a4.67 4.67 0 0 1-3.334 4.473v1.374A5.998 5.998 0 0 0 14 8a5.998 5.998 0 0 0-4.667-5.847Z" fill="#fff"/></svg>
